; generated by PrusaSlicer 2.4.2+win64 on 2022-11-30 at 09:44:44 UTC

; 

; external perimeters extrusion width = 0.45mm
; perimeters extrusion width = 0.45mm
; infill extrusion width = 0.45mm
; solid infill extrusion width = 0.45mm
; top infill extrusion width = 0.40mm
; first layer extrusion width = 0.42mm

M73 P0 R124
M73 Q0 S124
M107
;TYPE:Custom
M862.3 P "MK3S" ; printer model check
M862.1 P0.4 ; nozzle diameter check
M115 U3.10.0 ; tell printer latest fw version
G90 ; use absolute coordinates
M83 ; extruder relative mode
M104 S215 ; set extruder temp
M140 S60 ; set bed temp
M190 S60 ; wait for bed temp
M109 S215 ; wait for extruder temp
G28 W ; home all without mesh bed level
G80 ; mesh bed leveling
G1 Z0.2 F720
G1 Y-3 F1000 ; go outside print area
G92 E0
G1 X60 E9 F1000 ; intro line
G1 X100 E12.5 F1000 ; intro line
G92 E0
M221 S95

; Don't change E values below. Excessive value can damage the printer.
M907 E430 ; set extruder motor current
G21 ; set units to millimeters
G90 ; use absolute coordinates
M83 ; use relative distances for extrusion
M900 K0.05 ; Filament gcode LA 1.5
M900 K30 ; Filament gcode LA 1.0
M107
;LAYER_CHANGE
;Z:0.2
;HEIGHT:0.2
;BEFORE_LAYER_CHANGE
G92 E0.0
;0.2


G1 E-.8 F2100
G1 Z.4 F720
;AFTER_LAYER_CHANGE
;0.2
G1 X61.515 Y60.693 F10800
G1 Z.2 F720
G1 E.8 F2100
M204 S800
;TYPE:Skirt/Brim
;WIDTH:0.42
G1 F1200
G1 X62.56 Y59.817 E.04278
G1 X63.5 Y59.623 E.03008
G1 X186.5 Y59.623 E3.85658
G1 X187.807 Y60.015 E.04278
G1 X188.683 Y61.06 E.04278
G1 X188.877 Y62 E.03008
G1 X188.877 Y148 E2.69647
G1 X188.485 Y149.307 E.04278
M73 P0 R123
G1 X187.44 Y150.183 E.04278
G1 X186.5 Y150.377 E.03008
G1 X63.5 Y150.377 E3.85658
G1 X62.193 Y149.985 E.04278
G1 X61.317 Y148.94 E.04278
G1 X61.123 Y148 E.03008
G1 X61.123 Y62 E2.69647
G1 X61.497 Y60.75 E.0409
M204 S1000
; printing object Couvercle_Coffret_Affichage_DHT22_V2.stl id:0 copy 0
;WIPE_START
G1 F8640
G1 X62.56 Y59.817 E-.32671
G1 X63.5 Y59.623 E-.22155
G1 X64.417 Y59.623 E-.21174
;WIPE_END
G1 E-.04 F2100
G1 Z.6 F720
G1 X181.699 Y143.483 F10800
G1 Z.2 F720
G1 E.8 F2100
M204 S800
;TYPE:Perimeter
G1 F1200
G1 X181.882 Y143.3 E.00811
G1 X182.092 Y143.162 E.00789
G1 X182.327 Y143.064 E.00796
G1 X182.588 Y143.015 E.00833
G1 X182.829 Y143.016 E.00755
G1 X183.076 Y143.065 E.00791
G1 X183.308 Y143.162 E.00787
G1 X183.518 Y143.301 E.00789
G1 X183.701 Y143.483 E.00811
G1 X183.841 Y143.699 E.00808
G1 X183.935 Y143.925 E.00765
G1 X183.984 Y144.173 E.00794
G1 X183.984 Y144.427 E.00797
G1 X183.935 Y144.675 E.00794
G1 X183.841 Y144.901 E.00765
G1 X183.701 Y145.117 E.00808
G1 X183.518 Y145.299 E.00811
G1 X183.308 Y145.438 E.00789
G1 X183.076 Y145.535 E.00787
G1 X182.827 Y145.584 E.00795
G1 X182.573 Y145.584 E.00797
G1 X182.324 Y145.535 E.00796
G1 X182.092 Y145.438 E.00787
G1 X181.882 Y145.299 E.00789
G1 X181.699 Y145.117 E.00811
G1 X181.559 Y144.901 E.00808
G1 X181.465 Y144.675 E.00765
G1 X181.416 Y144.427 E.00794
G1 X181.416 Y144.173 E.00797
G1 X181.465 Y143.924 E.00794
G1 X181.559 Y143.699 E.00765
G1 X181.667 Y143.534 E.0062
M204 S1000
G1 X181.994 Y143.722 F10800
M204 S800
;TYPE:External perimeter
G1 F1200
G1 X182.122 Y143.594 E.00568
G1 X182.27 Y143.496 E.00558
G1 X182.436 Y143.427 E.00561
G1 X182.622 Y143.392 E.00595
G1 X182.79 Y143.393 E.00528
G1 X182.965 Y143.428 E.00559
G1 X183.13 Y143.496 E.00558
G1 X183.278 Y143.594 E.00558
G1 X183.406 Y143.722 E.00568
G1 X183.506 Y143.876 E.00576
G1 X183.572 Y144.035 E.00539
G1 X183.607 Y144.21 E.0056
G1 X183.607 Y144.39 E.00564
G1 X183.572 Y144.565 E.0056
G1 X183.506 Y144.724 E.00539
G1 X183.406 Y144.878 E.00576
G1 X183.278 Y145.006 E.00568
G1 X183.13 Y145.104 E.00558
G1 X182.965 Y145.172 E.00558
G1 X182.79 Y145.207 E.00561
G1 X182.61 Y145.207 E.00564
G1 X182.435 Y145.172 E.00561
G1 X182.27 Y145.104 E.00558
G1 X182.122 Y145.006 E.00558
G1 X181.994 Y144.878 E.00568
G1 X181.894 Y144.724 E.00576
G1 X181.828 Y144.565 E.00539
G1 X181.793 Y144.39 E.0056
G1 X181.793 Y144.21 E.00564
G1 X181.828 Y144.035 E.00561
G1 X181.894 Y143.876 E.00538
G1 X181.961 Y143.773 E.00387
M204 S1000
G1 X181.93 Y143.553 F10800
;WIPE_START
G1 F8640
G1 X182.122 Y143.594 E-.05547
G1 X182.27 Y143.496 E-.04107
G1 X182.436 Y143.427 E-.04131
G1 X182.622 Y143.392 E-.04384
G1 X182.79 Y143.393 E-.03887
G1 X182.965 Y143.428 E-.04119
G1 X183.13 Y143.496 E-.04107
G1 X183.278 Y143.594 E-.04109
G1 X183.406 Y143.722 E-.04181
G1 X183.506 Y143.876 E-.04239
G1 X183.572 Y144.035 E-.03968
G1 X183.607 Y144.21 E-.04126
G1 X183.607 Y144.39 E-.04154
G1 X183.572 Y144.565 E-.04125
G1 X183.506 Y144.724 E-.03967
G1 X183.406 Y144.878 E-.04241
G1 X183.278 Y145.006 E-.04181
G1 X183.13 Y145.104 E-.0411
G1 X183.117 Y145.109 E-.00318
;WIPE_END
G1 E-.04 F2100
G1 Z.6 F720
G1 X182.41 Y67.384 F10800
G1 Z.2 F720
G1 E.8 F2100
M204 S800
;TYPE:Perimeter
G1 F1200
G1 X182.124 Y67.335 E.00911
G1 X181.892 Y67.238 E.00786
G1 X181.682 Y67.099 E.00789
G1 X181.501 Y66.918 E.00806
G1 X181.362 Y66.708 E.00789
G1 X181.265 Y66.476 E.00787
G1 X181.216 Y66.227 E.00795
G1 X181.216 Y65.973 E.00797
G1 X181.265 Y65.724 E.00794
G1 X181.359 Y65.5 E.00764
G1 X181.499 Y65.283 E.00809
G1 X181.683 Y65.099 E.00816
G1 X181.899 Y64.959 E.00808
G1 X182.125 Y64.865 E.00765
G1 X182.373 Y64.816 E.00794
G1 X182.627 Y64.816 E.00797
G1 X182.876 Y64.865 E.00795
G1 X183.106 Y64.961 E.00782
G1 X183.317 Y65.1 E.00794
G1 X183.5 Y65.282 E.00808
G1 X183.638 Y65.493 E.0079
G1 X183.735 Y65.724 E.00786
G1 X183.784 Y65.973 E.00796
G1 X183.784 Y66.227 E.00797
G1 X183.735 Y66.476 E.00796
G1 X183.638 Y66.708 E.00787
G1 X183.499 Y66.918 E.00788
G1 X183.318 Y67.099 E.00806
G1 X183.108 Y67.238 E.00789
G1 X182.876 Y67.335 E.00787
G1 X182.627 Y67.384 E.00796
G1 X182.47 Y67.384 E.00492
M204 S1000
G1 X182.41 Y67.007 F10800
M204 S800
;TYPE:External perimeter
G1 F1200
G1 X182.234 Y66.972 E.00561
G1 X182.07 Y66.904 E.00557
G1 X181.922 Y66.806 E.00558
G1 X181.794 Y66.678 E.00566
G1 X181.696 Y66.53 E.00558
G1 X181.628 Y66.365 E.00558
G1 X181.593 Y66.19 E.00561
G1 X181.593 Y66.01 E.00564
G1 X181.628 Y65.835 E.00561
G1 X181.694 Y65.676 E.00538
G1 X181.794 Y65.522 E.00576
G1 X181.922 Y65.394 E.0057
G1 X182.076 Y65.294 E.00576
G1 X182.235 Y65.228 E.00539
G1 X182.41 Y65.193 E.0056
G1 X182.59 Y65.193 E.00564
G1 X182.765 Y65.228 E.00561
G1 X182.928 Y65.296 E.00553
G1 X183.078 Y65.394 E.00562
G1 X183.206 Y65.522 E.00567
G1 X183.304 Y65.671 E.00559
G1 X183.372 Y65.835 E.00557
G1 X183.407 Y66.01 E.00561
G1 X183.407 Y66.19 E.00564
G1 X183.372 Y66.366 E.00562
G1 X183.304 Y66.53 E.00558
G1 X183.206 Y66.678 E.00557
G1 X183.078 Y66.806 E.00566
G1 X182.93 Y66.904 E.00558
G1 X182.765 Y66.972 E.00558
G1 X182.59 Y67.007 E.00561
G1 X182.47 Y67.007 E.00376
M204 S1000
G1 X182.306 Y67.153 F10800
;WIPE_START
G1 F8640
G1 X182.234 Y66.972 E-.055
G1 X182.07 Y66.904 E-.04103
G1 X181.922 Y66.806 E-.04109
G1 X181.794 Y66.678 E-.04168
G1 X181.696 Y66.53 E-.0411
G1 X181.628 Y66.365 E-.04107
G1 X181.593 Y66.19 E-.04129
G1 X181.593 Y66.01 E-.04155
G1 X181.628 Y65.835 E-.04129
G1 X181.694 Y65.676 E-.03959
G1 X181.794 Y65.522 E-.04243
G1 X181.922 Y65.394 E-.04194
G1 X182.076 Y65.294 E-.04239
G1 X182.235 Y65.228 E-.03968
G1 X182.41 Y65.193 E-.04126
G1 X182.59 Y65.193 E-.04152
G1 X182.765 Y65.228 E-.04131
G1 X182.928 Y65.296 E-.04072
G1 X182.943 Y65.305 E-.00404
;WIPE_END
G1 E-.04 F2100
G1 Z.6 F720
G1 X68.777 Y66.164 F10800
G1 Z.2 F720
G1 E.8 F2100
M204 S800
;TYPE:Perimeter
G1 F1200
G1 X68.735 Y66.376 E.0068
G1 X68.638 Y66.608 E.00786
G1 X68.499 Y66.818 E.00789
G1 X68.317 Y67.001 E.00811
G1 X68.101 Y67.141 E.00808
G1 X67.875 Y67.235 E.00765
G1 X67.627 Y67.284 E.00794
G1 X67.373 Y67.284 E.00797
G1 X67.124 Y67.235 E.00796
G1 X66.892 Y67.138 E.00786
G1 X66.682 Y66.999 E.00789
G1 X66.501 Y66.818 E.00806
G1 X66.362 Y66.608 E.00789
G1 X66.265 Y66.376 E.00787
G1 X66.216 Y66.127 E.00795
G1 X66.216 Y65.873 E.00797
G1 X66.265 Y65.624 E.00796
G1 X66.362 Y65.392 E.00788
G1 X66.501 Y65.182 E.00788
G1 X66.682 Y65.001 E.00806
G1 X66.892 Y64.862 E.00789
G1 X67.124 Y64.765 E.00787
G1 X67.373 Y64.716 E.00796
G1 X67.627 Y64.716 E.00797
G1 X67.876 Y64.765 E.00796
G1 X68.108 Y64.862 E.00787
G1 X68.318 Y65.001 E.00789
G1 X68.499 Y65.182 E.00806
G1 X68.638 Y65.392 E.00789
G1 X68.735 Y65.624 E.00787
G1 X68.784 Y65.873 E.00795
G1 X68.784 Y66.104 E.00725
M204 S1000
G1 X68.407 Y66.09 F10800
M204 S800
;TYPE:External perimeter
G1 F1200
G1 X68.372 Y66.266 E.00561
G1 X68.304 Y66.43 E.00557
G1 X68.206 Y66.578 E.00558
G1 X68.078 Y66.706 E.00568
G1 X67.924 Y66.806 E.00576
G1 X67.765 Y66.872 E.00539
G1 X67.59 Y66.907 E.0056
G1 X67.41 Y66.907 E.00564
G1 X67.234 Y66.872 E.00561
G1 X67.07 Y66.804 E.00557
G1 X66.922 Y66.706 E.00558
G1 X66.794 Y66.578 E.00566
G1 X66.696 Y66.43 E.00558
G1 X66.628 Y66.265 E.00558
G1 X66.593 Y66.09 E.00561
G1 X66.593 Y65.91 E.00564
G1 X66.628 Y65.735 E.00561
G1 X66.696 Y65.57 E.00558
G1 X66.794 Y65.422 E.00557
G1 X66.922 Y65.294 E.00566
G1 X67.07 Y65.196 E.00558
G1 X67.235 Y65.128 E.00557
G1 X67.41 Y65.093 E.00561
G1 X67.59 Y65.093 E.00564
G1 X67.765 Y65.128 E.00561
G1 X67.93 Y65.196 E.00558
G1 X68.078 Y65.294 E.00558
G1 X68.206 Y65.422 E.00566
G1 X68.304 Y65.57 E.00558
G1 X68.372 Y65.735 E.00558
G1 X68.407 Y65.91 E.00561
G1 X68.407 Y66.03 E.00376
M204 S1000
G1 X68.553 Y66.194 F10800
;WIPE_START
G1 F8640
G1 X68.372 Y66.266 E-.055
G1 X68.304 Y66.43 E-.04103
G1 X68.206 Y66.578 E-.04109
G1 X68.078 Y66.706 E-.04182
G1 X67.924 Y66.806 E-.04239
G1 X67.765 Y66.872 E-.03968
G1 X67.59 Y66.907 E-.04126
G1 X67.41 Y66.907 E-.04155
G1 X67.234 Y66.872 E-.04135
G1 X67.07 Y66.804 E-.04102
G1 X66.922 Y66.706 E-.04109
G1 X66.794 Y66.578 E-.04168
G1 X66.696 Y66.43 E-.0411
G1 X66.628 Y66.265 E-.04108
G1 X66.593 Y66.09 E-.04129
G1 X66.593 Y65.91 E-.04155
G1 X66.628 Y65.735 E-.04132
G1 X66.696 Y65.57 E-.04112
G1 X66.705 Y65.557 E-.0036
;WIPE_END
G1 E-.04 F2100
G1 Z.6 F720
G1 X67.492 Y142.816 F10800
G1 Z.2 F720
G1 E.8 F2100
M204 S800
;TYPE:Perimeter
G1 F1200
G1 X67.776 Y142.865 E.00903
G1 X68.008 Y142.962 E.00786
G1 X68.218 Y143.101 E.00789
G1 X68.401 Y143.283 E.00811
G1 X68.541 Y143.5 E.00809
G1 X68.635 Y143.725 E.00764
G1 X68.684 Y143.973 E.00794
G1 X68.684 Y144.227 E.00796
G1 X68.635 Y144.476 E.00796
G1 X68.538 Y144.708 E.00787
G1 X68.399 Y144.918 E.00789
G1 X68.218 Y145.1 E.00806
G1 X68.007 Y145.238 E.0079
G1 X67.776 Y145.335 E.00786
G1 X67.527 Y145.384 E.00796
G1 X67.273 Y145.384 E.00797
G1 X67.025 Y145.335 E.00794
G1 X66.799 Y145.241 E.00766
G1 X66.583 Y145.101 E.00807
G1 X66.4 Y144.918 E.00811
G1 X66.262 Y144.707 E.0079
G1 X66.165 Y144.476 E.00786
G1 X66.116 Y144.227 E.00795
G1 X66.116 Y143.973 E.00797
G1 X66.165 Y143.724 E.00796
G1 X66.262 Y143.492 E.00787
G1 X66.401 Y143.282 E.00789
G1 X66.582 Y143.101 E.00806
G1 X66.792 Y142.962 E.00789
G1 X67.027 Y142.864 E.00796
G1 X67.288 Y142.815 E.00832
G1 X67.432 Y142.816 E.00454
M204 S1000
G1 X67.491 Y143.193 F10800
M204 S800
;TYPE:External perimeter
G1 F1200
G1 X67.666 Y143.228 E.0056
G1 X67.83 Y143.296 E.00557
G1 X67.978 Y143.394 E.00558
G1 X68.106 Y143.522 E.00568
G1 X68.207 Y143.676 E.00576
G1 X68.272 Y143.835 E.00538
G1 X68.307 Y144.01 E.00561
G1 X68.307 Y144.19 E.00564
G1 X68.272 Y144.365 E.00561
G1 X68.204 Y144.53 E.00558
G1 X68.106 Y144.678 E.00558
G1 X67.978 Y144.806 E.00566
G1 X67.829 Y144.904 E.00559
G1 X67.665 Y144.972 E.00557
G1 X67.49 Y145.007 E.00561
G1 X67.31 Y145.007 E.00564
G1 X67.135 Y144.972 E.0056
G1 X66.976 Y144.906 E.0054
G1 X66.822 Y144.806 E.00575
G1 X66.694 Y144.678 E.00568
G1 X66.596 Y144.529 E.00559
G1 X66.528 Y144.365 E.00557
G1 X66.493 Y144.19 E.00561
G1 X66.493 Y144.01 E.00564
G1 X66.528 Y143.835 E.00561
G1 X66.596 Y143.67 E.00558
G1 X66.694 Y143.522 E.00558
G1 X66.822 Y143.394 E.00566
G1 X66.97 Y143.296 E.00558
G1 X67.136 Y143.227 E.00561
G1 X67.322 Y143.192 E.00595
G1 X67.431 Y143.193 E.0034
M204 S1000
G1 X67.595 Y143.048 F10800
;WIPE_START
G1 F8640
G1 X67.666 Y143.228 E-.05489
G1 X67.83 Y143.296 E-.04102
G1 X67.978 Y143.394 E-.04109
G1 X68.106 Y143.522 E-.04182
G1 X68.207 Y143.676 E-.04244
G1 X68.272 Y143.835 E-.03962
G1 X68.307 Y144.01 E-.04128
G1 X68.307 Y144.19 E-.04152
G1 X68.272 Y144.365 E-.04131
G1 X68.204 Y144.53 E-.04106
G1 X68.106 Y144.678 E-.04108
G1 X67.978 Y144.806 E-.0417
G1 X67.829 Y144.904 E-.04114
G1 X67.665 Y144.972 E-.04101
G1 X67.49 Y145.007 E-.04131
G1 X67.31 Y145.007 E-.04154
G1 X67.135 Y144.972 E-.04126
G1 X66.976 Y144.906 E-.03975
G1 X66.957 Y144.894 E-.00515
;WIPE_END
G1 E-.04 F2100
G1 Z.6 F720
G1 X64.287 Y147.213 F10800
G1 Z.2 F720
G1 E.8 F2100
M204 S800
;TYPE:Perimeter
G1 F1200
G1 X64.287 Y62.787 E2.64711
G1 X185.713 Y62.787 E3.80722
G1 X185.713 Y147.213 E2.64711
G1 X64.347 Y147.213 E3.80534
M204 S1000
G1 X63.91 Y147.59 F10800
M204 S800
;TYPE:External perimeter
M73 Q0 S123
G1 F1200
G1 X63.91 Y62.41 E2.67076
G1 X186.09 Y62.41 E3.83087
G1 X186.09 Y147.59 E2.67076
G1 X63.97 Y147.59 E3.82899
M204 S1000
G1 X64.036 Y147.21 F10800
;WIPE_START
M73 P1 R122
M73 Q1 S123
G1 F8640
G1 X63.968 Y144.299 E-.76
;WIPE_END
G1 E-.04 F2100
G1 Z.6 F720
G1 X185.6 Y63.663 F10800
G1 Z.2 F720
G1 E.8 F2100
M204 S800
;TYPE:Solid infill
;WIDTH:0.420303
G1 F1200
G1 X185.007 Y63.07 E.02633
G1 X184.473 Y63.07 E.01675
G1 X185.43 Y64.027 E.04248
G1 X185.43 Y64.561 E.01675
G1 X183.939 Y63.07 E.06616
G1 X183.405 Y63.07 E.01675
G1 X185.43 Y65.095 E.08985
G1 X185.43 Y65.628 E.01675
G1 X182.872 Y63.07 E.11353
G1 X182.338 Y63.07 E.01675
G1 X185.43 Y66.162 E.13722
G1 X185.43 Y66.696 E.01675
G1 X181.804 Y63.07 E.1609
G1 X181.271 Y63.07 E.01675
G1 X182.753 Y64.553 E.0658
G1 X182.959 Y64.593 E.00656
G1 X183.239 Y64.71 E.00954
G1 X183.497 Y64.88 E.00968
G1 X183.72 Y65.103 E.00989
G1 X183.889 Y65.359 E.00964
G1 X184.007 Y65.641 E.00959
G1 X184.047 Y65.847 E.00657
G1 X185.6 Y67.399 E.06889
M204 S1000
;WIPE_START
G1 F8640
G1 X184.047 Y65.847 E-.50692
G1 X184.007 Y65.641 E-.04836
G1 X183.889 Y65.359 E-.07055
G1 X183.72 Y65.103 E-.07094
G1 X183.526 Y64.909 E-.06323
;WIPE_END
G1 E-.04 F2100
G1 Z.6 F720
G1 X182.37 Y64.703 F10800
G1 Z.2 F720
G1 E.8 F2100
M204 S800
G1 F1200
G1 X180.737 Y63.07 E.07246
G1 X180.203 Y63.07 E.01675
G1 X181.819 Y64.686 E.07171
G1 X181.491 Y64.892 E.01215
G1 X179.67 Y63.07 E.08084
G1 X179.136 Y63.07 E.01675
G1 X181.236 Y65.17 E.09319
G1 X181.107 Y65.367 E.00738
G1 X181.046 Y65.514 E.005
G1 X178.602 Y63.07 E.10847
G1 X178.068 Y63.07 E.01675
G1 X181.103 Y66.104 E.13465
M204 S1000
;WIPE_START
G1 F8640
G1 X178.775 Y63.777 E-.76
;WIPE_END
G1 E-.04 F2100
G1 Z.6 F720
G1 X183.897 Y66.23 F10800
G1 Z.2 F720
G1 E.8 F2100
M204 S800
G1 F1200
G1 X185.43 Y67.763 E.06802
G1 X185.43 Y68.297 E.01675
G1 X183.914 Y66.781 E.06728
G1 X183.708 Y67.109 E.01215
G1 X185.43 Y68.83 E.07641
G1 X185.43 Y69.364 E.01675
G1 X183.43 Y67.364 E.08876
G1 X183.241 Y67.489 E.00711
G1 X183.086 Y67.554 E.00528
G1 X185.43 Y69.898 E.10403
G1 X185.43 Y70.432 E.01675
G1 X182.496 Y67.497 E.13021
M204 S1000
;WIPE_START
G1 F8640
G1 X184.823 Y69.825 E-.76
;WIPE_END
G1 E-.04 F2100
G1 Z.6 F720
G1 X185.6 Y71.135 F10800
G1 Z.2 F720
G1 E.8 F2100
M204 S800
G1 F1200
G1 X182.079 Y67.614 E.15624
G1 X181.759 Y67.489 E.01079
G1 X181.503 Y67.32 E.00963
G1 X181.28 Y67.097 E.00987
G1 X181.111 Y66.841 E.00964
G1 X180.986 Y66.521 E.01078
G1 X177.535 Y63.07 E.15315
G1 X177.001 Y63.07 E.01675
G1 X185.43 Y71.499 E.37406
G1 X185.43 Y72.033 E.01675
G1 X176.467 Y63.07 E.39774
G1 X175.934 Y63.07 E.01675
G1 X185.43 Y72.566 E.42143
G1 X185.43 Y73.1 E.01675
G1 X175.4 Y63.07 E.44511
G1 X174.866 Y63.07 E.01675
G1 X185.43 Y73.634 E.4688
G1 X185.43 Y74.167 E.01675
G1 X174.333 Y63.07 E.49248
G1 X173.799 Y63.07 E.01675
G1 X185.43 Y74.701 E.51616
G1 X185.43 Y75.235 E.01675
G1 X173.265 Y63.07 E.53985
G1 X172.731 Y63.07 E.01675
G1 X185.43 Y75.769 E.56353
G1 X185.43 Y76.302 E.01675
G1 X172.198 Y63.07 E.58722
G1 X171.664 Y63.07 E.01675
G1 X185.43 Y76.836 E.6109
G1 X185.43 Y77.37 E.01675
G1 X171.13 Y63.07 E.63458
G1 X170.597 Y63.07 E.01675
G1 X185.43 Y77.903 E.65827
G1 X185.43 Y78.437 E.01675
G1 X170.063 Y63.07 E.68195
G1 X169.529 Y63.07 E.01675
G1 X185.43 Y78.971 E.70564
G1 X185.43 Y79.504 E.01675
G1 X168.996 Y63.07 E.72932
G1 X168.462 Y63.07 E.01675
G1 X185.43 Y80.038 E.75301
G1 X185.43 Y80.572 E.01675
