; generated by PrusaSlicer 2.5.0+win64 on 2023-03-13 at 15:28:11 UTC

; 

; external perimeters extrusion width = 0.45mm
; perimeters extrusion width = 0.45mm
; infill extrusion width = 0.45mm
; solid infill extrusion width = 0.45mm
; top infill extrusion width = 0.40mm
; first layer extrusion width = 0.42mm

M73 P0 R49
M73 Q0 S49
M107
;TYPE:Custom
M862.3 P "MK3S" ; printer model check
M862.1 P0.4 ; nozzle diameter check
M115 U3.10.0 ; tell printer latest fw version
G90 ; use absolute coordinates
M83 ; extruder relative mode
M104 S215 ; set extruder temp
M140 S60 ; set bed temp
M190 S60 ; wait for bed temp
M109 S215 ; wait for extruder temp
G28 W ; home all without mesh bed level
G80 ; mesh bed leveling
G1 Z0.2 F720
G1 Y-3 F1000 ; go outside print area
G92 E0
G1 X60 E9 F1000 ; intro line
G1 X100 E12.5 F1000 ; intro line
G92 E0
M221 S95

; Don't change E values below. Excessive value can damage the printer.
M907 E430 ; set extruder motor current
G21 ; set units to millimeters
G90 ; use absolute coordinates
M83 ; use relative distances for extrusion
M900 K0.05 ; Filament gcode LA 1.5
M900 K30 ; Filament gcode LA 1.0
M107
;LAYER_CHANGE
;Z:0.2
;HEIGHT:0.2
;BEFORE_LAYER_CHANGE
G92 E0.0
;0.2


G1 E-.8 F2100
M73 P0 R48
G1 Z.4 F720
;AFTER_LAYER_CHANGE
;0.2
G1 X113.015 Y83.693 F10800
G1 Z.2 F720
G1 E.8 F2100
M204 S800
;TYPE:Skirt/Brim
;WIDTH:0.42
G1 F1200
G1 X114.06 Y82.817 E.04278
G1 X115 Y82.623 E.03008
G1 X135 Y82.623 E.62709
G1 X136.307 Y83.015 E.04278
G1 X137.183 Y84.06 E.04278
G1 X137.377 Y85 E.03008
G1 X137.377 Y125 E1.25417
G1 X136.985 Y126.307 E.04278
G1 X135.94 Y127.183 E.04278
G1 X135 Y127.377 E.03008
G1 X115 Y127.377 E.62709
G1 X113.693 Y126.985 E.04278
G1 X112.817 Y125.94 E.04278
G1 X112.623 Y125 E.03008
G1 X112.623 Y85 E1.25417
G1 X112.997 Y83.75 E.0409
M204 S1000
; printing object Modification-DHT22.stl id:0 copy 0
;WIPE_START
G1 F8640
G1 X114.06 Y82.817 E-.32671
G1 X115 Y82.623 E-.22155
G1 X115.917 Y82.623 E-.21174
;WIPE_END
G1 E-.04 F2100
G1 Z.6 F720
G1 X116.164 Y86.164 F10800
G1 Z.2 F720
G1 E.8 F2100
M204 S800
;TYPE:Perimeter
;WIDTH:0.419999
G1 F1200
G1 X133.836 Y86.164 E.55408
G1 X133.836 Y123.836 E1.18117
G1 X116.164 Y123.836 E.55408
G1 X116.164 Y86.224 E1.17929
M204 S1000
G1 X115.787 Y85.787 F10800
M204 S800
M73 Q0 S48
G1 F1200
G1 X134.213 Y85.787 E.57773
G1 X134.213 Y124.213 E1.20481
G1 X115.787 Y124.213 E.57773
G1 X115.787 Y85.847 E1.20293
M204 S1000
G1 X115.41 Y85.41 F10800
M204 S800
;TYPE:External perimeter
G1 F1200
G1 X134.59 Y85.41 E.60137
G1 X134.59 Y124.59 E1.22846
G1 X115.41 Y124.59 E.60137
G1 X115.41 Y85.47 E1.22658
M204 S1000
M73 P1 R48
M73 Q1 S48
G1 X115.783 Y85.555 F10800
;WIPE_START
G1 F8640
G1 X118.701 Y85.46 E-.76
;WIPE_END
G1 E-.04 F2100
G1 Z.6 F720
G1 X126.991 Y89.332 F10800
G1 Z.2 F720
G1 E.8 F2100
M204 S800
;WIDTH:0.528008
G1 F1200
G1 X127.008 Y89.209 E.00501
M204 S1000
;WIPE_START
G1 F8640
G1 X126.991 Y89.332 E-.02869
;WIPE_END
G1 E-.77131 F2100
G1 Z.6 F720
G1 X126.991 Y90.746 F10800
G1 Z.2 F720
G1 E.8 F2100
M204 S800
;TYPE:Perimeter
;WIDTH:0.419999
G1 F1200
G1 X126.78 Y90.899 E.00816
G1 X126.472 Y91.029 E.01051
G1 X126.083 Y91.092 E.01235
G1 X125.573 Y91.038 E.01607
G1 X125.337 Y90.963 E.00778
G1 X125 Y90.738 E.01269
G1 X124.571 Y91 E.01576
G1 X124.084 Y91.092 E.01554
G1 X123.577 Y91.039 E.01597
G1 X123.403 Y90.992 E.00567
G1 X123.001 Y90.74 E.01486
G1 X122.609 Y90.996 E.01469
G1 X122.05 Y91.13 E.01801
G1 X121.551 Y91.101 E.01567
G1 X121.291 Y91.013 E.00859
G1 X120.801 Y90.743 E.01755
G1 X120.415 Y90.311 E.01818
G1 X120.238 Y89.983 E.01167
G1 X120.102 Y89.509 E.01545
G1 X120.13 Y88.874 E.01993
G1 X120.237 Y88.523 E.01152
G1 X120.415 Y88.189 E.01189
G1 X120.657 Y87.897 E.01188
G1 X120.955 Y87.659 E.01194
G1 X121.257 Y87.497 E.01077
G1 X121.65 Y87.381 E.01284
G1 X122.148 Y87.385 E.01562
G1 X122.553 Y87.484 E.01307
G1 X123.009 Y87.754 E.0166
G1 X123.325 Y87.542 E.01194
G1 X123.748 Y87.422 E.01377
G1 X124.016 Y87.414 E.00841
G1 X124.368 Y87.454 E.01111
G1 X124.74 Y87.578 E.01231
G1 X125 Y87.762 E.00998
G1 X125.321 Y87.545 E.01216
G1 X125.632 Y87.454 E.01016
G1 X126.09 Y87.408 E.01441
G1 X126.472 Y87.471 E.01216
G1 X126.839 Y87.643 E.01269
G1 X126.999 Y87.76 E.00622
G1 X127.314 Y87.538 E.01208
G1 X127.837 Y87.381 E.01711
G1 X128.337 Y87.386 E.01568
G1 X128.709 Y87.487 E.01208
G1 X129.046 Y87.659 E.01186
G1 X129.343 Y87.897 E.01194
G1 X129.585 Y88.189 E.01191
G1 X129.762 Y88.518 E.01169
G1 X129.913 Y89.155 E.02053
G1 X129.861 Y89.695 E.01703
G1 X129.763 Y89.977 E.00934
G1 X129.474 Y90.475 E.01805
G1 X129.045 Y90.841 E.01767
G1 X128.743 Y91.003 E.01077
G1 X128.234 Y91.132 E.01644
G1 X127.732 Y91.1 E.01578
G1 X127.361 Y90.984 E.0122
G1 X127.042 Y90.779 E.01189
M204 S1000
G1 X127.007 Y90.167 F10800
M204 S800
G1 F1200
G1 X126.81 Y90.411 E.00983
G1 X126.574 Y90.583 E.00916
G1 X126.18 Y90.707 E.01297
G1 X125.674 Y90.672 E.0159
G1 X125.404 Y90.566 E.00908
G1 X125.12 Y90.35 E.0112
G1 X125 Y90.177 E.0066
G1 X124.808 Y90.411 E.00949
G1 X124.448 Y90.644 E.01346
G1 X124.085 Y90.715 E.01157
G1 X123.536 Y90.639 E.0174
G1 X123.176 Y90.401 E.01352
G1 X122.998 Y90.18 E.00889
G1 X122.803 Y90.417 E.00963
G1 X122.471 Y90.645 E.01262
G1 X121.969 Y90.754 E.01612
G1 X121.543 Y90.711 E.01342
G1 X121.034 Y90.446 E.01798
G1 X120.644 Y89.979 E.01908
G1 X120.473 Y89.444 E.01761
G1 X120.505 Y88.912 E.01673
G1 X120.569 Y88.701 E.00691
G1 X120.748 Y88.366 E.01189
G1 X120.893 Y88.192 E.00713
G1 X121.372 Y87.856 E.01833
G1 X121.813 Y87.744 E.01427
G1 X122.265 Y87.787 E.01423
G1 X122.635 Y87.949 E.01267
G1 X122.885 Y88.17 E.01046
G1 X122.993 Y88.333 E.00612
G1 X123.19 Y88.089 E.00983
G1 X123.489 Y87.881 E.01143
G1 X123.91 Y87.785 E.01355
G1 X124.326 Y87.828 E.01309
G1 X124.596 Y87.934 E.00909
G1 X124.88 Y88.15 E.0112
G1 X125 Y88.323 E.0066
G1 X125.192 Y88.089 E.00949
G1 X125.488 Y87.883 E.01131
G1 X126.026 Y87.789 E.01714
G1 X126.389 Y87.839 E.01148
G1 X126.617 Y87.947 E.0079
G1 X126.962 Y88.254 E.01447
G1 X127.002 Y88.32 E.00243
G1 X127.197 Y88.083 E.00963
G1 X127.482 Y87.875 E.01106
G1 X128 Y87.744 E.01673
G1 X128.314 Y87.762 E.00987
G1 X128.537 Y87.823 E.00725
G1 X128.874 Y87.995 E.01186
G1 X129.053 Y88.138 E.00716
G1 X129.295 Y88.43 E.01191
G1 X129.401 Y88.627 E.00701
G1 X129.535 Y89.155 E.01708
G1 X129.489 Y89.63 E.01498
G1 X129.252 Y90.134 E.01745
G1 X129.107 Y90.308 E.00713
G1 X128.718 Y90.606 E.01535
G1 X128.215 Y90.756 E.01645
G1 X127.737 Y90.713 E.01507
G1 X127.365 Y90.551 E.01272
G1 X127.115 Y90.33 E.01046
G1 X127.04 Y90.217 E.00424
M204 S1000
G1 X126.991 Y89.332 F10800
M204 S800
;TYPE:External perimeter
;WIDTH:0.528008
G1 F1200
G1 X126.954 Y89.436 E.00443
;WIDTH:0.493647
G1 X126.917 Y89.539 E.00411
;WIDTH:0.459286
G1 X126.879 Y89.642 E.0038
;WIDTH:0.424924
G1 X126.621 Y90.076 E.01603
;WIDTH:0.419999
G1 X126.368 Y90.267 E.00996
G1 X126.068 Y90.337 E.00966
G1 X125.626 Y90.262 E.01403
G1 X125.362 Y90.049 E.01063
;WIDTH:0.451628
G1 X125.089 Y89.595 E.01801
;WIDTH:0.490266
G1 X125.039 Y89.464 E.0052
;WIDTH:0.528904
G1 X124.99 Y89.334 E.00565
G1 X124.953 Y89.437 E.00442
;WIDTH:0.494413
G1 X124.915 Y89.54 E.00411
;WIDTH:0.459921
G1 X124.878 Y89.642 E.00379
;WIDTH:0.425429
G1 X124.61 Y90.086 E.01649
;WIDTH:0.419999
G1 X124.304 Y90.293 E.01158
G1 X124.065 Y90.336 E.00763
G1 X123.624 Y90.262 E.01401
G1 X123.356 Y90.042 E.01088
;WIDTH:0.458463
G1 X123.086 Y89.564 E.01897
;WIDTH:0.493235
G1 X123.037 Y89.448 E.00471
;WIDTH:0.528006
G1 X122.988 Y89.332 E.00507
G1 X122.951 Y89.436 E.00442
;WIDTH:0.493739
G1 X122.914 Y89.539 E.00411
;WIDTH:0.459471
G1 X122.877 Y89.642 E.0038
;WIDTH:0.425203
G1 X122.591 Y90.104 E.01727
;WIDTH:0.419999
G1 X122.314 Y90.301 E.01066
G1 X121.99 Y90.377 E.01044
G1 X121.634 Y90.341 E.01121
G1 X121.238 Y90.122 E.01421
G1 X120.96 Y89.764 E.01421
G1 X120.843 Y89.328 E.01415
G1 X120.902 Y88.879 E.01421
G1 X121.129 Y88.486 E.01422
G1 X121.487 Y88.215 E.01406
G1 X121.824 Y88.121 E.01099
G1 X122.149 Y88.146 E.01023
G1 X122.425 Y88.262 E.00937
G1 X122.57 Y88.377 E.00581
G1 X122.859 Y88.829 E.01682
;WIDTH:0.454786
G1 X122.908 Y88.956 E.00465
;WIDTH:0.489572
G1 X122.956 Y89.083 E.00504
;WIDTH:0.524358
G1 X123.005 Y89.209 E.00543
G1 X123.044 Y89.093 E.00493
;WIDTH:0.489572
G1 X123.083 Y88.976 E.00458
;WIDTH:0.454786
G1 X123.123 Y88.859 E.00422
;WIDTH:0.419999
G1 X123.379 Y88.424 E.01582
G1 X123.694 Y88.207 E.01201
G1 X123.931 Y88.164 E.00757
G1 X124.374 Y88.238 E.01406
G1 X124.638 Y88.451 E.01063
;WIDTH:0.439538
G1 X124.906 Y88.906 E.01742
;WIDTH:0.482392
G1 X124.956 Y89.057 E.00582
;WIDTH:0.525246
G1 X125.006 Y89.208 E.00638
G1 X125.045 Y89.092 E.00493
;WIDTH:0.490164
G1 X125.085 Y88.975 E.00457
;WIDTH:0.455082
G1 X125.124 Y88.859 E.00421
;WIDTH:0.419999
G1 X125.39 Y88.414 E.01626
G1 X125.716 Y88.203 E.01218
G1 X126.131 Y88.167 E.01305
G1 X126.394 Y88.252 E.00866
G1 X126.644 Y88.458 E.01017
;WIDTH:0.446261
G1 X126.909 Y88.937 E.01837
;WIDTH:0.485309
G1 X126.958 Y89.073 E.00532
;WIDTH:0.524356
G1 X127.008 Y89.209 E.00579
G1 X127.047 Y89.093 E.00492
;WIDTH:0.489571
G1 X127.086 Y88.976 E.00457
;WIDTH:0.454785
G1 X127.126 Y88.86 E.00421
;WIDTH:0.419999
G1 X127.409 Y88.396 E.01704
G1 X127.686 Y88.199 E.01064
G1 X128.011 Y88.122 E.01049
G1 X128.366 Y88.159 E.01119
G1 X128.762 Y88.378 E.01421
G1 X129.04 Y88.736 E.01421
G1 X129.157 Y89.174 E.01419
G1 X129.098 Y89.621 E.01416
G1 X128.871 Y90.014 E.01422
G1 X128.513 Y90.285 E.01406
G1 X128.176 Y90.379 E.01099
G1 X127.852 Y90.354 E.01019
G1 X127.575 Y90.238 E.0094
G1 X127.43 Y90.123 E.00582
;WIDTH:0.424924
G1 X127.139 Y89.672 E.01706
;WIDTH:0.459286
G1 X127.089 Y89.559 E.00427
;WIDTH:0.493647
G1 X127.04 Y89.445 E.00462
;WIDTH:0.528008
G1 X127.015 Y89.387 E.00255
M204 S1000
;WIPE_START
G1 F8640
G1 X126.954 Y89.436 E-.01799
G1 X126.917 Y89.539 E-.02534
G1 X126.879 Y89.642 E-.02534
G1 X126.621 Y90.076 E-.11653
G1 X126.368 Y90.267 E-.07336
G1 X126.068 Y90.337 E-.07114
G1 X125.626 Y90.262 E-.10331
G1 X125.362 Y90.049 E-.07831
G1 X125.089 Y89.595 E-.12239
G1 X125.039 Y89.464 E-.03229
G1 X124.99 Y89.334 E-.03229
G1 X124.953 Y89.437 E-.02527
G1 X124.915 Y89.54 E-.02527
G1 X124.899 Y89.585 E-.01116
;WIPE_END
G1 E-.04 F2100
G1 Z.6 F720
G1 X125.006 Y89.208 F10800
G1 Z.2 F720
G1 E.8 F2100
M204 S800
;WIDTH:0.528904
G1 F1200
G1 X124.99 Y89.334 E.00511
M204 S1000
;WIPE_START
G1 F8640
G1 X125.006 Y89.208 E-.02921
;WIPE_END
G1 E-.77079 F2100
G1 Z.6 F720
G1 X122.988 Y89.332 F10800
G1 Z.2 F720
G1 E.8 F2100
M204 S800
;WIDTH:0.528006
G1 F1200
G1 X123.005 Y89.209 E.00501
M204 S1000
;WIPE_START
G1 F8640
G1 X122.988 Y89.332 E-.02869
;WIPE_END
G1 E-.77131 F2100
G1 Z.6 F720
G1 X127.547 Y120.75 F10800
G1 Z.2 F720
G1 E.8 F2100
M204 S800
;TYPE:Perimeter
;WIDTH:0.419999
G1 F1200
G1 X127.521 Y120.862 E.0036
G1 X127.304 Y121.337 E.01636
G1 X126.999 Y121.761 E.01637
G1 X126.618 Y122.116 E.01631
G1 X126.174 Y122.391 E.01639
G1 X125.683 Y122.575 E.01644
G1 X125.169 Y122.658 E.01634
G1 X124.649 Y122.641 E.01632
G1 X124.138 Y122.521 E.01645
G1 X123.663 Y122.304 E.01636
G1 X123.239 Y121.999 E.01637
G1 X122.884 Y121.618 E.01631
G1 X122.609 Y121.174 E.01639
G1 X122.425 Y120.683 E.01644
G1 X122.342 Y120.169 E.01634
G1 X122.359 Y119.649 E.01632
G1 X122.479 Y119.138 E.01645
G1 X122.696 Y118.663 E.01636
G1 X123.001 Y118.239 E.01637
G1 X123.382 Y117.884 E.01631
G1 X123.826 Y117.609 E.01639
G1 X124.317 Y117.425 E.01644
G1 X124.832 Y117.342 E.01636
G1 X125.351 Y117.359 E.01627
G1 X125.862 Y117.479 E.01648
G1 X126.337 Y117.696 E.01636
G1 X126.761 Y118.001 E.01637
G1 X127.116 Y118.382 E.01631
G1 X127.391 Y118.826 E.01639
G1 X127.575 Y119.317 E.01644
G1 X127.658 Y119.832 E.01636
G1 X127.641 Y120.351 E.01627
G1 X127.561 Y120.692 E.01099
M204 S1000
G1 X127.186 Y120.658 F10800
M204 S800
G1 F1200
G1 X126.991 Y121.127 E.01593
G1 X126.732 Y121.494 E.01407
G1 X126.409 Y121.802 E.01401
G1 X126.03 Y122.043 E.01408
G1 X125.61 Y122.205 E.0141
G1 X125.169 Y122.281 E.01404
G1 X124.722 Y122.271 E.01402
G1 X124.282 Y122.173 E.01411
G1 X123.873 Y121.991 E.01405
G1 X123.506 Y121.732 E.01407
G1 X123.198 Y121.409 E.01401
G1 X122.957 Y121.03 E.01408
G1 X122.795 Y120.61 E.0141
G1 X122.719 Y120.169 E.01404
G1 X122.729 Y119.722 E.01402
G1 X122.827 Y119.282 E.01411
G1 X123.009 Y118.873 E.01405
G1 X123.268 Y118.506 E.01407
G1 X123.591 Y118.198 E.01401
G1 X123.97 Y117.957 E.01408
G1 X124.39 Y117.795 E.0141
G1 X124.832 Y117.719 E.01406
G1 X125.278 Y117.729 E.01398
G1 X125.718 Y117.827 E.01414
G1 X126.127 Y118.009 E.01405
G1 X126.494 Y118.268 E.01407
G1 X126.802 Y118.591 E.01401
G1 X127.043 Y118.97 E.01408
G1 X127.205 Y119.39 E.0141
G1 X127.281 Y119.832 E.01406
G1 X127.271 Y120.278 E.01398
G1 X127.199 Y120.6 E.01035
M204 S1000
G1 X126.824 Y120.573 F10800
M204 S800
;TYPE:External perimeter
G1 F1200
G1 X126.677 Y120.917 E.01174
G1 X126.466 Y121.227 E.01177
G1 X126.199 Y121.489 E.01171
G1 X125.885 Y121.695 E.01177
G1 X125.537 Y121.835 E.01176
G1 X125.169 Y121.904 E.01175
G1 X124.795 Y121.901 E.01173
G1 X124.427 Y121.824 E.01177
G1 X124.083 Y121.677 E.01174
G1 X123.773 Y121.466 E.01177
G1 X123.511 Y121.199 E.01171
G1 X123.305 Y120.885 E.01177
G1 X123.165 Y120.537 E.01176
G1 X123.096 Y120.169 E.01175
G1 X123.099 Y119.795 E.01173
G1 X123.176 Y119.427 E.01177
G1 X123.323 Y119.083 E.01174
G1 X123.534 Y118.773 E.01177
G1 X123.801 Y118.511 E.01171
G1 X124.115 Y118.305 E.01177
G1 X124.463 Y118.165 E.01176
G1 X125 Y118.096 E.01698
G1 X125.537 Y118.165 E.01698
G1 X125.917 Y118.323 E.01291
G1 X126.227 Y118.534 E.01177
G1 X126.489 Y118.801 E.01171
G1 X126.695 Y119.115 E.01177
G1 X126.835 Y119.463 E.01176
G1 X126.904 Y119.832 E.01177
G1 X126.901 Y120.205 E.01169
G1 X126.836 Y120.514 E.00991
M204 S1000
G1 X127.077 Y120.849 F10800
;WIPE_START
G1 F8640
G1 X126.677 Y120.917 E-.1001
G1 X126.466 Y121.227 E-.08666
G1 X126.199 Y121.489 E-.08625
G1 X125.885 Y121.695 E-.08669
G1 X125.537 Y121.835 E-.08659
G1 X125.169 Y121.904 E-.08654
G1 X124.795 Y121.901 E-.08639
G1 X124.427 Y121.824 E-.08671
G1 X124.212 Y121.732 E-.05408
;WIPE_END
G1 E-.04 F2100
G1 Z.6 F720
G1 X132.96 Y86.277 F10800
G1 Z.2 F720
G1 E.8 F2100
M204 S800
;TYPE:Solid infill
;WIDTH:0.42027
G1 F1200
G1 X133.553 Y86.87 E.02632
G1 X133.553 Y87.404 E.01674
G1 X132.596 Y86.447 E.04247
G1 X132.062 Y86.447 E.01674
G1 X133.553 Y87.938 E.06615
G1 X133.553 Y88.471 E.01674
G1 X131.529 Y86.447 E.08983
G1 X130.995 Y86.447 E.01674
G1 X133.553 Y89.005 E.11351
G1 X133.553 Y89.539 E.01674
G1 X130.461 Y86.447 E.13719
G1 X129.928 Y86.447 E.01674
G1 X133.553 Y90.072 E.16087
G1 X133.553 Y90.606 E.01674
G1 X129.394 Y86.447 E.18455
G1 X128.86 Y86.447 E.01674
G1 X133.553 Y91.14 E.20823
G1 X133.553 Y91.673 E.01674
G1 X128.327 Y86.447 E.23191
G1 X127.793 Y86.447 E.01674
G1 X128.482 Y87.136 E.03059
G1 X128.829 Y87.231 E.01126
G1 X129.183 Y87.411 E.01248
G1 X129.555 Y87.709 E.01494
G1 X129.809 Y88.016 E.01252
G1 X130.03 Y88.427 E.01463
G1 X130.141 Y88.795 E.01208
G1 X133.553 Y92.207 E.15138
G1 X133.553 Y92.741 E.01674
G1 X130.176 Y89.363 E.14986
G1 X130.139 Y89.748 E.01213
G1 X130.11 Y89.832 E.00277
G1 X133.553 Y93.274 E.15277
G1 X133.553 Y93.808 E.01674
G1 X129.958 Y90.213 E.15952
G1 X129.763 Y90.551 E.01226
G1 X133.553 Y94.342 E.1682
G1 X133.553 Y94.875 E.01674
G1 X129.509 Y90.832 E.17943
G1 X129.212 Y91.068 E.01191
G1 X133.553 Y95.409 E.19261
G1 X133.553 Y95.943 E.01674
G1 X128.867 Y91.257 E.20793
G1 X128.458 Y91.381 E.01342
G1 X133.553 Y96.476 E.22609
G1 X133.553 Y97.01 E.01674
G1 X127.942 Y91.399 E.24899
G1 X127.649 Y91.372 E.00921
G1 X127.255 Y91.246 E.01298
G1 X133.553 Y97.543 E.27945
G1 X133.553 Y98.077 E.01674
G1 X126.715 Y91.239 E.30341
G1 X126.627 Y91.281 E.00305
G1 X126.298 Y91.356 E.01059
G1 X133.553 Y98.611 E.32192
G1 X133.553 Y99.144 E.01674
G1 X125.742 Y91.333 E.34662
G1 X125.416 Y91.293 E.0103
G1 X125.215 Y91.218 E.00673
G1 X125 Y91.083 E.00796
G1 X124.974 Y91.099 E.00095
G1 X133.553 Y99.678 E.38067
G1 X133.553 Y100.212 E.01674
G1 X124.619 Y91.278 E.39642
G1 X124.177 Y91.37 E.01416
G1 X133.553 Y100.745 E.41604
G1 X133.553 Y101.279 E.01674
G1 X123.593 Y91.319 E.44195
G1 X123.437 Y91.299 E.00493
G1 X123.298 Y91.255 E.00459
G1 X123.005 Y91.086 E.0106
G1 X122.893 Y91.153 E.0041
