; generated by PrusaSlicer 2.4.2+win64 on 2022-11-08 at 15:39:08 UTC

; 

; external perimeters extrusion width = 0.45mm
; perimeters extrusion width = 0.45mm
; infill extrusion width = 0.45mm
; solid infill extrusion width = 0.45mm
; top infill extrusion width = 0.40mm
; first layer extrusion width = 0.42mm

; external perimeters extrusion width = 0.45mm
; perimeters extrusion width = 0.45mm
; infill extrusion width = 0.45mm
; solid infill extrusion width = 0.45mm
; top infill extrusion width = 0.40mm
; first layer extrusion width = 0.42mm

M73 P0 R15
M73 Q0 S15
M107
;TYPE:Custom
M862.3 P "MK3S" ; printer model check
M862.1 P0.4 ; nozzle diameter check
M115 U3.10.0 ; tell printer latest fw version
G90 ; use absolute coordinates
M83 ; extruder relative mode
M104 S215 ; set extruder temp
M140 S60 ; set bed temp
M190 S60 ; wait for bed temp
M109 S215 ; wait for extruder temp
G28 W ; home all without mesh bed level
G80 ; mesh bed leveling
G1 Z0.2 F720
G1 Y-3 F1000 ; go outside print area
G92 E0
G1 X60 E9 F1000 ; intro line
G1 X100 E12.5 F1000 ; intro line
G92 E0
M221 S95

; Don't change E values below. Excessive value can damage the printer.
M907 E430 ; set extruder motor current
G21 ; set units to millimeters
G90 ; use absolute coordinates
M83 ; use relative distances for extrusion
M900 K0.05 ; Filament gcode LA 1.5
M900 K30 ; Filament gcode LA 1.0
M107
;LAYER_CHANGE
;Z:0.2
;HEIGHT:0.2
;BEFORE_LAYER_CHANGE
G92 E0.0
;0.2


G1 E-.8 F2100
G1 Z.4 F720
;AFTER_LAYER_CHANGE
;0.2
G1 X164.069 Y99.623 F10800
G1 Z.2 F720
G1 E.8 F2100
M204 S800
;TYPE:Skirt/Brim
;WIDTH:0.42
G1 F1200
G1 X165.058 Y98.137 E.05597
G1 X166.292 Y96.845 E.05603
G1 X168.144 Y95.547 E.0709
G1 X169.782 Y94.829 E.05607
G1 X171.517 Y94.408 E.05597
G1 X173.168 Y94.286 E.05192
G1 X199.643 Y95.332 E.83076
G1 X201.549 Y95.537 E.06009
M73 P1 R15
M73 Q1 S15
G1 X203.264 Y96.04 E.05605
G1 X204.864 Y96.832 E.05599
G1 X206.302 Y97.889 E.05595
G1 X207.537 Y99.182 E.05604
G1 X208.527 Y100.668 E.05598
G1 X209.244 Y102.305 E.05606
G1 X209.666 Y104.04 E.05597
G1 X209.78 Y105.823 E.056
G1 X209.582 Y107.596 E.05596
G1 X209.08 Y109.312 E.05606
G1 X208.287 Y110.912 E.05599
G1 X207.227 Y112.352 E.05604
G1 X205.935 Y113.583 E.05595
G1 X204.449 Y114.572 E.05598
G1 X202.812 Y115.29 E.05606
G1 X201.077 Y115.71 E.05597
G1 X199.426 Y115.832 E.05191
G1 X172.95 Y114.786 E.83076
G1 X171.046 Y114.58 E.06007
G1 X169.781 Y114.242 E.04105
G1 X168.144 Y113.524 E.05603
G1 X166.292 Y112.227 E.0709
G1 X165.058 Y110.934 E.05603
G1 X164.309 Y109.864 E.04099
G1 X163.353 Y107.813 E.07092
G1 X162.931 Y106.077 E.05602
G1 X162.817 Y104.296 E.05597
G1 X163.015 Y102.521 E.056
G1 X163.517 Y100.809 E.05593
G1 X164.044 Y99.677 E.03914
M204 S1000
G1 X164.386 Y99.837 F10800
M204 S800
G1 F1200
G1 X165.367 Y98.353 E.05577
G1 X166.559 Y97.111 E.05397
G1 X168.304 Y95.889 E.0668
G1 X169.88 Y95.194 E.054
G1 X171.55 Y94.784 E.05392
G1 X173.153 Y94.662 E.05042
G1 X199.628 Y95.709 E.83076
M73 P1 R14
G1 X201.451 Y95.901 E.05747
G1 X203.105 Y96.381 E.05398
G1 X204.648 Y97.141 E.05393
G1 X206.036 Y98.156 E.0539
G1 X207.228 Y99.398 E.05398
G1 X208.185 Y100.827 E.05393
G1 X208.88 Y102.403 E.054
G1 X209.29 Y104.073 E.05392
G1 X209.404 Y105.79 E.05394
G1 X209.218 Y107.499 E.05391
G1 X208.738 Y109.153 E.05399
G1 X207.978 Y110.696 E.05394
G1 X206.961 Y112.085 E.05398
G1 X205.719 Y113.274 E.0539
G1 X204.29 Y114.231 E.05393
G1 X202.714 Y114.925 E.05399
G1 X201.044 Y115.335 E.05392
G1 X199.441 Y115.456 E.05041
G1 X172.965 Y114.409 E.83076
G1 X171.143 Y114.216 E.05746
M73 Q1 S14
G1 X169.879 Y113.878 E.04104
G1 X168.304 Y113.182 E.05397
M73 Q2 S14
G1 X166.559 Y111.96 E.0668
G1 X165.367 Y110.718 E.05397
G1 X164.618 Y109.647 E.04099
M73 P2 R14
G1 X163.717 Y107.716 E.06682
G1 X163.307 Y106.044 E.05396
G1 X163.193 Y104.329 E.05392
G1 X163.379 Y102.618 E.05394
G1 X163.858 Y100.968 E.05388
G1 X164.36 Y99.891 E.03726
M204 S1000
; printing object Support_coffret_Affichage_DHT22.stl id:1 copy 0
;WIPE_START
G1 F8640
G1 X165.367 Y98.353 E-.42442
G1 X166.373 Y97.305 E-.33558
;WIPE_END
G1 E-.04 F2100
G1 Z.6 F720
G1 X192.928 Y104.418 F10800
G1 Z.2 F720
G1 E.8 F2100
M204 S800
;TYPE:Perimeter
G1 F1200
G1 X193.231 Y103.289 E.03667
G1 X193.725 Y102.229 E.03666
G1 X194.395 Y101.271 E.03665
G1 X195.222 Y100.445 E.03666
G1 X196.18 Y99.774 E.03667
G1 X197.24 Y99.279 E.03666
G1 X198.37 Y98.976 E.03669
G1 X199.535 Y98.874 E.03666
G1 X200.7 Y98.976 E.03669
G1 X201.83 Y99.278 E.03666
G1 X202.89 Y99.773 E.03667
G1 X203.848 Y100.443 E.03668
G1 X204.676 Y101.27 E.03667
G1 X205.347 Y102.228 E.03667
G1 X205.841 Y103.288 E.03668
G1 X206.144 Y104.418 E.03667
G1 X206.246 Y105.582 E.03666
G1 X206.144 Y106.747 E.03666
G1 X205.841 Y107.877 E.03667
G1 X205.347 Y108.937 E.03668
G1 X204.676 Y109.895 E.03667
G1 X203.848 Y110.721 E.03667
G1 X202.916 Y111.374 E.03569
G1 X201.829 Y111.887 E.03769
G1 X200.7 Y112.189 E.03662
G1 X199.535 Y112.29 E.03668
G1 X198.37 Y112.188 E.03666
G1 X197.24 Y111.886 E.03669
G1 X196.18 Y111.391 E.03666
G1 X195.222 Y110.72 E.03667
G1 X194.395 Y109.894 E.03666
G1 X193.725 Y108.936 E.03665
G1 X193.231 Y107.876 E.03666
G1 X192.928 Y106.746 E.03667
G1 X192.826 Y105.582 E.03664
G1 X192.923 Y104.478 E.03476
M204 S1000
G1 X192.555 Y104.352 F10800
M204 S800
;TYPE:External perimeter
G1 F1200
G1 X192.875 Y103.159 E.03874
G1 X193.397 Y102.04 E.03873
G1 X194.105 Y101.028 E.03872
G1 X194.979 Y100.155 E.03873
G1 X195.991 Y99.446 E.03874
G1 X197.11 Y98.923 E.03874
G1 X198.304 Y98.604 E.03876
G1 X199.535 Y98.496 E.03872
G1 X200.766 Y98.603 E.03875
G1 X201.959 Y98.922 E.03873
G1 X203.079 Y99.445 E.03874
G1 X204.091 Y100.153 E.03874
G1 X204.966 Y101.026 E.03874
G1 X205.674 Y102.038 E.03874
G1 X206.197 Y103.158 E.03875
G1 X206.517 Y104.352 E.03874
G1 X206.624 Y105.582 E.03873
G1 X206.517 Y106.813 E.03873
G1 X206.197 Y108.006 E.03874
G1 X205.674 Y109.126 E.03875
G1 X204.966 Y110.138 E.03874
G1 X204.091 Y111.011 E.03874
G1 X203.106 Y111.701 E.03772
G1 X201.959 Y112.242 E.03976
G1 X200.766 Y112.561 E.03872
G1 X199.535 Y112.669 E.03875
G1 X198.304 Y112.561 E.03872
G1 X197.11 Y112.241 E.03876
G1 X195.991 Y111.719 E.03874
G1 X194.979 Y111.01 E.03874
G1 X194.105 Y110.137 E.03873
G1 X193.397 Y109.125 E.03872
G1 X192.875 Y108.005 E.03873
G1 X192.555 Y106.812 E.03874
G1 X192.448 Y105.582 E.03871
G1 X192.55 Y104.412 E.03683
M204 S1000
G1 X192.931 Y104.216 F10800
;WIPE_START
G1 F8640
G1 X192.875 Y103.159 E-.29892
G1 X193.397 Y102.04 E-.2852
G1 X193.834 Y101.416 E-.17588
;WIPE_END
G1 E-.04 F2100
G1 Z.6 F720
G1 X205.167 Y102.169 F10800
G1 Z.2 F720
G1 E.8 F2100
M204 S800
;TYPE:Solid infill
;WIDTH:0.430531
G1 F1200
G1 X203.644 Y100.646 E.06943
G1 X202.748 Y100.018 E.03527
G1 X202.224 Y99.774 E.01862
G1 X205.347 Y102.897 E.14232
G1 X205.575 Y103.385 E.01737
G1 X205.68 Y103.778 E.01311
G1 X201.343 Y99.44 E.19769
G1 X200.605 Y99.252 E.02452
G1 X205.868 Y104.515 E.23989
G1 X205.921 Y105.115 E.01944
G1 X200.005 Y99.199 E.26966
G1 X199.535 Y99.158 E.01521
G1 X199.425 Y99.168 E.00354
G1 X205.952 Y105.695 E.29749
G1 X205.908 Y106.199 E.01631
G1 X198.921 Y99.212 E.31845
G1 X198.418 Y99.256 E.0163
G1 X205.863 Y106.702 E.33937
G1 X205.747 Y107.134 E.01443
M73 P3 R14
M73 Q3 S14
G1 X197.985 Y99.372 E.3538
G1 X197.553 Y99.488 E.01443
G1 X205.632 Y107.567 E.36824
G1 X205.575 Y107.78 E.00711
G1 X205.486 Y107.969 E.00675
G1 X197.15 Y99.633 E.37997
G1 X196.776 Y99.808 E.01329
G1 X205.312 Y108.343 E.38905
G1 X205.137 Y108.717 E.01329
G1 X196.402 Y99.982 E.39814
G1 X196.069 Y100.197 E.01278
G1 X204.922 Y109.05 E.40353
G1 X204.696 Y109.372 E.01269
G1 X195.747 Y100.423 E.40793
G1 X195.424 Y100.648 E.01268
G1 X204.471 Y109.695 E.41233
G1 X204.199 Y109.971 E.01249
G1 X195.147 Y100.919 E.41258
G1 X194.873 Y101.193 E.01249
G1 X203.925 Y110.245 E.41258
G1 X203.648 Y110.516 E.01249
G1 X194.601 Y101.47 E.41234
G1 X194.375 Y101.792 E.01269
G1 X203.325 Y110.742 E.40793
G1 X203.003 Y110.968 E.01269
G1 X194.15 Y102.115 E.40353
G1 X193.935 Y102.448 E.01278
G1 X202.666 Y111.179 E.39798
G1 X202.294 Y111.355 E.01327
M73 P4 R14
M73 Q4 S14
G1 X193.76 Y102.822 E.38894
G1 X193.586 Y103.196 E.0133
G1 X201.921 Y111.531 E.3799
G1 X201.731 Y111.62 E.00678
G1 X201.519 Y111.677 E.00706
G1 X193.441 Y103.598 E.36822
G1 X193.325 Y104.031 E.01442
G1 X201.087 Y111.793 E.35379
G1 X200.654 Y111.908 E.01443
G1 X193.209 Y104.463 E.33937
G1 X193.164 Y104.966 E.01628
G1 X200.151 Y111.953 E.31846
G1 X199.646 Y111.997 E.01631
G1 X193.12 Y105.47 E.29749
G1 X193.11 Y105.582 E.00363
G1 X193.151 Y106.049 E.01511
G1 X199.067 Y111.965 E.26966
G1 X198.466 Y111.913 E.01944
G1 X193.203 Y106.65 E.23988
G1 X193.393 Y107.387 E.02454
G1 X197.729 Y111.724 E.19766
G1 X197.337 Y111.619 E.01309
G1 X196.848 Y111.391 E.0174
G1 X193.726 Y108.269 E.14228
G1 X193.971 Y108.794 E.01867
G1 X194.595 Y109.686 E.0351
G1 X196.119 Y111.21 E.06945
M204 S1000
; stop printing object Support_coffret_Affichage_DHT22.stl id:1 copy 0
; printing object Support_coffret_Affichage_DHT22.stl id:0 copy 0
;WIPE_START
G1 F8640
G1 X194.595 Y109.686 E-.49756
G1 X193.971 Y108.794 E-.2515
G1 X193.951 Y108.751 E-.01094
;WIPE_END
G1 E-.04 F2100
G1 Z.6 F720
G1 X179.392 Y106.733 F10800
G1 Z.2 F720
G1 E.8 F2100
M204 S800
;TYPE:Perimeter
;WIDTH:0.42
G1 F1200
G1 X179.366 Y106.83 E.00317
G1 X178.871 Y107.89 E.03668
G1 X178.2 Y108.848 E.03667
G1 X177.373 Y109.675 E.03667
G1 X176.441 Y110.327 E.03569
G1 X175.353 Y110.84 E.03769
G1 X174.225 Y111.142 E.03662
G1 X173.059 Y111.244 E.03668
G1 X171.895 Y111.142 E.03666
G1 X170.764 Y110.839 E.03669
G1 X169.705 Y110.344 E.03666
G1 X168.747 Y109.673 E.03667
G1 X167.92 Y108.847 E.03666
G1 X167.249 Y107.889 E.03665
G1 X166.756 Y106.829 E.03666
G1 X166.453 Y105.7 E.03667
G1 X166.351 Y104.536 E.03664
G1 X166.453 Y103.372 E.03664
G1 X166.756 Y102.242 E.03667
G1 X167.249 Y101.182 E.03666
G1 X167.92 Y100.225 E.03665
G1 X168.747 Y99.398 E.03666
G1 X169.705 Y98.727 E.03667
G1 X170.764 Y98.232 E.03666
G1 X171.895 Y97.93 E.03669
G1 X173.059 Y97.828 E.03666
G1 X174.225 Y97.929 E.03669
G1 X175.355 Y98.232 E.03666
G1 X176.415 Y98.726 E.03667
G1 X177.373 Y99.397 E.03668
G1 X178.2 Y100.223 E.03667
G1 X178.871 Y101.181 E.03667
G1 X179.366 Y102.241 E.03668
G1 X179.669 Y103.371 E.03667
G1 X179.771 Y104.536 E.03666
G1 X179.669 Y105.701 E.03666
G1 X179.408 Y106.675 E.03162
M204 S1000
G1 X179.756 Y106.83 F10800
M204 S800
;TYPE:External perimeter
G1 F1200
G1 X179.722 Y106.96 E.0042
G1 X179.199 Y108.08 E.03875
G1 X178.49 Y109.092 E.03874
G1 X177.616 Y109.965 E.03874
G1 X176.631 Y110.655 E.03772
G1 X175.484 Y111.196 E.03976
G1 X174.291 Y111.515 E.03872
G1 X173.059 Y111.622 E.03875
M73 Q5 S14
G1 X171.829 Y111.514 E.03872
G1 X170.635 Y111.195 E.03876
M73 P5 R14
G1 X169.515 Y110.672 E.03874
G1 X168.504 Y109.963 E.03874
G1 X167.63 Y109.09 E.03873
G1 X166.922 Y108.079 E.03872
G1 X166.4 Y106.959 E.03873
G1 X166.08 Y105.766 E.03874
G1 X165.972 Y104.536 E.03871
G1 X166.08 Y103.306 E.03871
G1 X166.4 Y102.113 E.03874
G1 X166.922 Y100.993 E.03873
G1 X167.63 Y99.981 E.03872
G1 X168.504 Y99.108 E.03873
G1 X169.515 Y98.399 E.03874
G1 X170.635 Y97.877 E.03874
G1 X171.829 Y97.557 E.03876
G1 X173.059 Y97.449 E.03872
G1 X174.291 Y97.557 E.03875
G1 X175.484 Y97.876 E.03873
G1 X176.604 Y98.398 E.03874
G1 X177.616 Y99.107 E.03874
G1 X178.49 Y99.98 E.03874
G1 X179.199 Y100.992 E.03874
G1 X179.722 Y102.112 E.03875
G1 X180.041 Y103.305 E.03874
G1 X180.149 Y104.536 E.03873
G1 X180.041 Y105.766 E.03873
G1 X179.772 Y106.772 E.03266
M204 S1000
G1 X179.628 Y106.869 F10800
;WIPE_START
G1 F8640
G1 X179.722 Y106.96 E-.04481
G1 X179.199 Y108.08 E-.28534
G1 X178.49 Y109.092 E-.2853
G1 X178.047 Y109.534 E-.14455
;WIPE_END
G1 E-.04 F2100
G1 Z.6 F720
G1 X178.692 Y101.123 F10800
G1 Z.2 F720
G1 E.8 F2100
M204 S800
;TYPE:Solid infill
;WIDTH:0.430531
G1 F1200
G1 X177.169 Y99.599 E.06943
G1 X176.273 Y98.972 E.03527
G1 X175.749 Y98.728 E.01862
G1 X178.871 Y101.85 E.14232
G1 X179.099 Y102.338 E.01737
G1 X179.205 Y102.731 E.01311
G1 X174.867 Y98.394 E.19769
G1 X174.13 Y98.205 E.02452
G1 X179.393 Y103.468 E.23989
G1 X179.446 Y104.069 E.01944
G1 X173.53 Y98.153 E.26966
G1 X173.059 Y98.112 E.01521
G1 X172.95 Y98.121 E.00354
G1 X179.477 Y104.648 E.29749
G1 X179.433 Y105.152 E.01631
G1 X172.446 Y98.165 E.31845
G1 X171.942 Y98.21 E.0163
G1 X179.388 Y105.655 E.33937
G1 X179.272 Y106.088 E.01443
G1 X171.51 Y98.326 E.3538
G1 X171.078 Y98.441 E.01443
G1 X179.156 Y106.52 E.36824
G1 X179.099 Y106.733 E.00711
G1 X179.011 Y106.923 E.00675
G1 X170.674 Y98.586 E.37997
G1 X170.301 Y98.761 E.01329
G1 X178.836 Y107.297 E.38905
G1 X178.662 Y107.67 E.01329
G1 X169.927 Y98.935 E.39814
G1 X169.594 Y99.15 E.01278
G1 X178.447 Y108.003 E.40353
G1 X178.221 Y108.326 E.01269
M73 P6 R14
M73 Q6 S14
G1 X169.271 Y99.376 E.40793
G1 X168.949 Y99.602 E.01268
G1 X177.995 Y108.648 E.41233
G1 X177.724 Y108.925 E.01249
G1 X168.672 Y99.873 E.41258
G1 X168.398 Y100.147 E.01249
G1 X177.449 Y109.199 E.41258
G1 X177.172 Y109.47 E.01249
G1 X168.126 Y100.423 E.41234
G1 X167.9 Y100.746 E.01269
G1 X176.85 Y109.695 E.40793
G1 X176.528 Y109.921 E.01269
G1 X167.674 Y101.068 E.40353
G1 X167.459 Y101.401 E.01278
G1 X176.191 Y110.133 E.39798
G1 X175.818 Y110.308 E.01327
G1 X167.285 Y101.775 E.38894
G1 X167.111 Y102.149 E.0133
G1 X175.446 Y110.484 E.3799
G1 X175.256 Y110.574 E.00678
G1 X175.044 Y110.63 E.00706
G1 X166.965 Y102.552 E.36822
G1 X166.849 Y102.984 E.01442
G1 X174.612 Y110.746 E.35379
G1 X174.179 Y110.862 E.01443
G1 X166.734 Y103.416 E.33937
G1 X166.689 Y103.919 E.01628
G1 X173.675 Y110.906 E.31846
G1 X173.171 Y110.95 E.01631
G1 X166.645 Y104.424 E.29749
G1 X166.635 Y104.536 E.00363
M73 P7 R14
M73 Q7 S14
G1 X166.676 Y105.003 E.01511
G1 X172.592 Y110.919 E.26966
G1 X171.991 Y110.866 E.01944
G1 X166.728 Y105.603 E.23988
G1 X166.917 Y106.341 E.02454
G1 X171.254 Y110.677 E.19766
G1 X170.862 Y110.572 E.01309
G1 X170.372 Y110.344 E.0174
G1 X167.251 Y107.222 E.14228
G1 X167.495 Y107.747 E.01867
G1 X168.12 Y108.64 E.0351
G1 X169.644 Y110.163 E.06945
M204 S1000
; stop printing object Support_coffret_Affichage_DHT22.stl id:0 copy 0
M106 S84.15
;LAYER_CHANGE
;Z:0.4
;HEIGHT:0.2
;BEFORE_LAYER_CHANGE
G92 E0.0
;0.4


;WIPE_START
G1 F8640
G1 X168.12 Y108.64 E-.49756
G1 X167.495 Y107.747 E-.2515
G1 X167.475 Y107.705 E-.01094
;WIPE_END
G1 E-.04 F2100
G1 Z.6 F720
;AFTER_LAYER_CHANGE
;0.4
G1 X164.047 Y109.302 F10800
G1 Z.4 F720
G1 E.8 F2100
;TYPE:Skirt/Brim
;WIDTH:0.42
G1 F3000
G1 X163.353 Y107.813 E.0515
G1 X162.931 Y106.077 E.05602
G1 X162.817 Y104.296 E.05597
G1 X163.015 Y102.521 E.056
G1 X163.517 Y100.809 E.05593
G1 X164.069 Y99.623 E.04103
G1 X165.058 Y98.137 E.05597
G1 X166.292 Y96.845 E.05603
G1 X168.144 Y95.547 E.0709
G1 X169.782 Y94.829 E.05607
G1 X171.517 Y94.408 E.05597
G1 X173.168 Y94.286 E.05192
G1 X199.643 Y95.332 E.83076
G1 X201.549 Y95.537 E.06009
G1 X203.264 Y96.04 E.05605
G1 X204.864 Y96.832 E.05599
G1 X206.302 Y97.889 E.05595
G1 X207.537 Y99.182 E.05604
G1 X208.527 Y100.668 E.05598
G1 X209.244 Y102.305 E.05606
G1 X209.666 Y104.04 E.05597
G1 X209.78 Y105.823 E.056
G1 X209.582 Y107.596 E.05596
G1 X209.08 Y109.312 E.05606
G1 X208.287 Y110.912 E.05599
G1 X207.227 Y112.352 E.05604
G1 X205.935 Y113.583 E.05595
G1 X204.449 Y114.572 E.05598
G1 X202.812 Y115.29 E.05606
G1 X201.077 Y115.71 E.05597
G1 X199.426 Y115.832 E.05191
G1 X172.95 Y114.786 E.83076
G1 X171.046 Y114.58 E.06007
G1 X169.781 Y114.242 E.04105
G1 X168.144 Y113.524 E.05603
G1 X166.292 Y112.227 E.0709
G1 X165.058 Y110.934 E.05603
G1 X164.309 Y109.864 E.04099
G1 X164.072 Y109.357 E.01753
G1 X164.409 Y109.2 F10800
G1 F3000
G1 X163.717 Y107.716 E.05134
G1 X163.307 Y106.044 E.05396
G1 X163.193 Y104.329 E.05392
G1 X163.379 Y102.618 E.05394
G1 X163.858 Y100.968 E.05388
G1 X164.411 Y99.782 E.04102
G1 X165.367 Y98.353 E.05392
G1 X166.559 Y97.111 E.05397
G1 X168.304 Y95.889 E.0668
G1 X169.88 Y95.194 E.054
G1 X171.55 Y94.784 E.05392
G1 X173.153 Y94.662 E.05042
G1 X199.628 Y95.709 E.83076
G1 X201.451 Y95.901 E.05747
G1 X203.105 Y96.381 E.05398
G1 X204.648 Y97.141 E.05393
G1 X206.036 Y98.156 E.0539
G1 X207.228 Y99.398 E.05398
G1 X208.185 Y100.827 E.05393
G1 X208.88 Y102.403 E.054
